svg/business/basket_line.svg

<?xml version="1.0" encoding="UTF-8"?>
<svg width="24px" height="24px" viewBox="0 0 24 24" version="1.1" xmlns="http://www.w3.org/2000/svg" xmlns:xlink="http://www.w3.org/1999/xlink">
    <title>basket_line</title>
    <g id="页面-1" stroke="none" stroke-width="1" fill="none" fill-rule="evenodd">
        <g id="Business" transform="translate(-480.000000, -96.000000)" fill-rule="nonzero">
            <g id="basket_line" transform="translate(480.000000, 96.000000)">
                <path d="M24,0 L24,24 L0,24 L0,0 L24,0 Z M12.5934901,23.257841 L12.5819402,23.2595131 L12.5108777,23.2950439 L12.4918791,23.2987469 L12.4918791,23.2987469 L12.4767152,23.2950439 L12.4056548,23.2595131 C12.3958229,23.2563662 12.3870493,23.2590235 12.3821421,23.2649074 L12.3780323,23.275831 L12.360941,23.7031097 L12.3658947,23.7234994 L12.3769048,23.7357139 L12.4804777,23.8096931 L12.4953491,23.8136134 L12.4953491,23.8136134 L12.5071152,23.8096931 L12.6106902,23.7357139 L12.6232938,23.7196733 L12.6232938,23.7196733 L12.6266527,23.7031097 L12.609561,23.275831 C12.6075724,23.2657013 12.6010112,23.2592993 12.5934901,23.257841 L12.5934901,23.257841 Z M12.8583906,23.1452862 L12.8445485,23.1473072 L12.6598443,23.2396597 L12.6498822,23.2499052 L12.6498822,23.2499052 L12.6471943,23.2611114 L12.6650943,23.6906389 L12.6699349,23.7034178 L12.6699349,23.7034178 L12.678386,23.7104931 L12.8793402,23.8032389 C12.8914285,23.8068999 12.9022333,23.8029875 12.9078286,23.7952264 L12.9118235,23.7811639 L12.8776777,23.1665331 C12.8752882,23.1545897 12.8674102,23.1470016 12.8583906,23.1452862 L12.8583906,23.1452862 Z M12.1430473,23.1473072 C12.1332178,23.1423925 12.1221763,23.1452606 12.1156365,23.1525954 L12.1099173,23.1665331 L12.0757714,23.7811639 C12.0751323,23.7926639 12.0828099,23.8018602 12.0926481,23.8045676 L12.108256,23.8032389 L12.3092106,23.7104931 L12.3186497,23.7024347 L12.3186497,23.7024347 L12.3225043,23.6906389 L12.340401,23.2611114 L12.337245,23.2485176 L12.337245,23.2485176 L12.3277531,23.2396597 L12.1430473,23.1473072 Z" id="MingCute" fill-rule="nonzero"></path>
                <path d="M10.4636,3.28164 C11.2284348,2.36384783 12.6100265,2.32395297 13.4284923,3.16192917 L13.5365,3.28164 L17.4684,7.99996 L20.4528,7.99996 C21.331,7.99996 22.0375,8.7584 21.9373,9.65484 L21.8453424,10.4210773 L21.8453424,10.4210773 L21.7454433,11.1603324 L21.7454433,11.1603324 L21.6633364,11.7152836 L21.6633364,11.7152836 L21.5683391,12.3098119 L21.5683391,12.3098119 L21.4600362,12.9352476 L21.4600362,12.9352476 L21.3380125,13.5829209 L21.3380125,13.5829209 L21.2018528,14.2441624 C21.1301698,14.5767302 21.05303,14.911135 20.9702,15.2425 C20.7313111,16.1978778 20.433321,17.0740852 20.1375081,17.8257604 L19.9170141,18.3654582 L19.9170141,18.3654582 L19.7030815,18.8542037 L19.7030815,18.8542037 L19.501455,19.2877443 C19.4691953,19.3551644 19.4376877,19.4201071 19.4070519,19.4824838 L19.1581,19.9722 L19.1581,19.9722 C18.8371462,20.5813385 18.2344124,20.9416722 17.595138,20.9935038 L17.4347,21 L6.55426,21 C5.86955,21 5.19629,20.6446 4.84591,19.9921 L4.61293027,19.5418423 L4.61293027,19.5418423 L4.43317577,19.171822 C4.4019028,19.1056719 4.37003591,19.0373171 4.33766962,18.9668107 L4.13823539,18.5183747 C3.76439211,17.6504579 3.35299789,16.535 3.02987,15.2425 C2.97519095,15.0237857 2.92311508,14.8051875 2.87354793,14.58779 L2.73227819,13.9402837 L2.73227819,13.9402837 L2.60549408,13.3064885 L2.60549408,13.3064885 L2.49262888,12.6929113 L2.49262888,12.6929113 L2.39311588,12.1060596 L2.39311588,12.1060596 L2.30638837,11.5524403 L2.30638837,11.5524403 L2.23187963,11.0385607 L2.23187963,11.0385607 L2.14178704,10.3564878 L2.14178704,10.3564878 L2.07599895,9.80043219 C2.06996857,9.74646259 2.06435286,9.69523333 2.05914,9.64688 C1.96754842,8.79721368 2.59876404,8.07931934 3.40713478,8.00610516 L3.54341,7.99996 L6.53163,7.99996 L10.4636,3.28164 Z M19.8826,9.99996 L4.11298,9.99996 L4.17473161,10.4835656 L4.17473161,10.4835656 L4.25117159,11.0321467 L4.25117159,11.0321467 L4.3431056,11.6355578 L4.3431056,11.6355578 L4.45133935,12.2836532 C4.49022341,12.5060051 4.53195837,12.7341135 4.57667852,12.9662874 L4.7199288,13.6733149 C4.796166,14.031236 4.879422,14.3945 4.97015,14.7574 C5.26187941,15.9243412 5.63336661,16.9322512 5.96938668,17.7139614 L6.16582087,18.1553061 L6.16582087,18.1553061 L6.34821215,18.5391388 L6.34821215,18.5391388 L6.51102972,18.8622353 L6.51102972,18.8622353 L6.58337,19 L17.4096,19 L17.5642217,18.6970497 L17.5642217,18.6970497 L17.7413417,18.3318274 L17.7413417,18.3318274 L17.9350073,17.9089289 C18.3015896,17.0835536 18.7215765,15.9905647 19.0299,14.7574 C19.1547857,14.2578 19.2662755,13.748902 19.3651554,13.2500661 L19.504116,12.5117788 L19.504116,12.5117788 L19.6247513,11.8031045 C19.6433628,11.6882665 19.6612353,11.5752674 19.6783812,11.4644097 L19.7726337,10.8273801 L19.7726337,10.8273801 L19.8500347,10.2562634 L19.8500347,10.2562634 L19.8826,9.99996 Z M9.9864,12.8356 L10.4864,15.8356 C10.5772,16.3803 10.2092,16.8956 9.66441,16.9864 C9.11964,17.0772 8.60441,16.7091 8.51362,16.1644 L8.01362,13.1644 C7.92282,12.6196 8.29084,12.1044 8.83561,12.0136 C9.38038,11.9228 9.89561,12.2908 9.9864,12.8356 Z M15.0482541,12.0010625 L15.1644,12.0136 C15.6702857,12.0979143 16.0237265,12.5481653 15.9989375,13.0482541 L15.9864,13.1644 L15.4864,16.1644 C15.3956,16.7091 14.8804,17.0772 14.3356,16.9864 C13.8297143,16.9020857 13.4762735,16.4517485 13.5010625,15.9517274 L13.5136,15.8356 L14.0136,12.8356 C14.0979143,12.3297143 14.5481653,11.9762735 15.0482541,12.0010625 L15.0482541,12.0010625 Z M12,4.56201 L9.13505,7.99996 L14.865,7.99996 L12,4.56201 Z" id="形状" fill="#09244B"></path>
            </g>
        </g>
    </g>
</svg>

<svg xmlns="http://www.w3.org/2000/svg" width="24" height="24"><g fill="none" fill-rule="nonzero"><path d="M24 0v24H0V0zM12.593 23.258l-.011.002-.071.035-.02.004-.014-.004-.071-.035c-.01-.004-.019-.001-.024.005l-.004.01-.017.428.005.02.01.013.104.074.015.004.012-.004.104-.074.012-.016.004-.017-.017-.427c-.002-.01-.009-.017-.017-.018m.265-.113-.013.002-.185.093-.01.01-.003.011.018.43.005.012.008.007.201.093c.012.004.023 0 .029-.008l.004-.014-.034-.614c-.003-.012-.01-.02-.02-.022m-.715.002a.023.023 0 0 0-.027.006l-.006.014-.034.614c0 .012.007.02.017.024l.015-.002.201-.093.01-.008.004-.011.017-.43-.003-.012-.01-.01z"/><path fill="#09244B" d="M10.464 3.282a2 2 0 0 1 2.964-.12l.108.12L17.469 8h2.985a1.49 1.49 0 0 1 1.484 1.655l-.092.766-.1.74-.082.554-.095.595-.108.625-.122.648-.136.661c-.072.333-.149.667-.232.999a21.018 21.018 0 0 1-.832 2.583l-.221.54-.214.488-.202.434-.094.194-.249.49c-.32.61-.924.97-1.563 1.022l-.16.006H6.555a1.929 1.929 0 0 1-1.71-1.008l-.232-.45-.18-.37a20.09 20.09 0 0 1-.095-.205l-.2-.449a21.536 21.536 0 0 1-1.108-3.276 32.366 32.366 0 0 1-.156-.654l-.142-.648-.127-.634-.112-.613-.1-.587-.087-.554-.074-.513-.09-.683-.066-.556a39.802 39.802 0 0 1-.017-.153 1.488 1.488 0 0 1 1.348-1.64L3.543 8h2.989zM19.883 10H4.113l.062.484.076.548.092.604.108.648c.04.222.081.45.126.682l.143.707c.076.358.16.722.25 1.084a19.532 19.532 0 0 0 1 2.957l.196.441.182.384.163.323.072.138H17.41l.154-.303.177-.365.194-.423c.367-.825.787-1.918 1.095-3.152.125-.5.236-1.008.335-1.507l.14-.738.12-.709.053-.339.095-.637.077-.57zm-9.897 2.836.5 3a1 1 0 0 1-1.972.328l-.5-3a1 1 0 1 1 1.972-.328M15.048 12l.116.013A1 1 0 0 1 16 13.048l-.013.116-.5 3a1 1 0 0 1-1.985-.212l.013-.116.5-3A1 1 0 0 1 15.048 12M12 4.562 9.135 8h5.73z"/></g></svg>
